;FLAVOR:Marlin
;TIME:758
;Filament used: 0.597249m
;Layer height: 0.2
;MINX:91.241
;MINY:80.725
;MINZ:0.2
;MAXX:118.756
;MAXY:129.274
;MAXZ:10.075
;Generated with Cura_SteamEngine main
M140 S60
M105
M190 S60
M104 S200
M105
M109 S200
M82 ;absolute extrusion mode
G21 ;metric values
G90 ;absolute positioning
M82 ;set extruder to absolute mode
M107 ;start with the fan off
G28 X0 Y0 ;move X/Y to min endstops
G28 Z0 ;move Z to min endstops
G1 Z15.0 F100 ;move the platform down 15mm
G92 E0 ;zero the extruded length
G1 F200 E3 ;extrude 3mm of feed stock
G92 E0 ;zero the extruded length again
G1 F100
G0 Y20 F100
M117 Printing...
G5
G92 E0
G92 E0
G1 F2400 E-6
;LAYER_COUNT:50
;LAYER:0
M107
M204 S3000
M205 X10 Y10
G1 F600 Z0.275
G0 F3000 X98.986 Y83.059 Z0.275
G0 X97.428 Y86.129
M204 S1800
M205 X8 Y8
;TYPE:SKIRT
G1 F600 Z0.2
G1 F2400 E0
G1 X97.624 Y85.441 E0.03331
G1 X98.079 Y84.399 E0.08625
G1 X98.549 Y83.625 E0.12842
G1 X98.986 Y83.059 E0.16172
G1 X99.483 Y82.545 E0.19501
G1 X100.035 Y82.089 E0.22835
G1 X100.634 Y81.699 E0.26163
G1 X101.378 Y81.322 E0.30047
G1 X102.177 Y81.024 E0.34018
G1 X102.871 Y80.849 E0.3735
G1 X103.58 Y80.754 E0.40681
G1 X104.086 Y80.734 E0.43039
G1 X105.397 Y80.735 E0.49144
G1 X105.593 Y80.725 E0.50058
G1 X106.802 Y80.744 E0.55688
G1 X107.515 Y80.795 E0.59017
G1 X108.218 Y80.925 E0.62346
G1 X108.903 Y81.134 E0.6568
G1 X109.559 Y81.417 E0.69007
G1 X110.18 Y81.771 E0.72336
G1 X110.758 Y82.193 E0.75668
G1 X111.285 Y82.677 E0.79
G1 X111.755 Y83.216 E0.8233
G1 X112.161 Y83.805 E0.85661
G1 X112.674 Y84.798 E0.90865
G1 X113.018 Y85.762 E0.95631
G1 X113.754 Y88.317 E1.08012
G1 X114.564 Y90.858 E1.20431
G1 X115.443 Y93.367 E1.3281
G1 X116.373 Y95.8 E1.44938
G1 X117.906 Y99.427 E1.63274
G1 X118.202 Y100.09 E1.66655
G1 X118.457 Y100.758 E1.69984
G1 X118.635 Y101.451 E1.73316
G1 X118.735 Y102.159 E1.76645
G1 X118.756 Y102.874 E1.79976
G1 X118.685 Y103.715 E1.83906
G1 X118.508 Y104.756 E1.88823
G1 X117.788 Y107.665 E2.02777
G1 X117.222 Y110.271 E2.15195
G1 X116.743 Y112.822 E2.27281
G1 X116.323 Y115.468 E2.39756
G1 X116.09 Y117.196 E2.47875
G1 X115.684 Y120.915 E2.65295
G1 X115.567 Y121.62 E2.68623
G1 X115.372 Y122.309 E2.71957
G1 X115.101 Y122.971 E2.75288
G1 X114.758 Y123.598 E2.78616
G1 X114.166 Y124.404 E2.83273
G1 X113.602 Y125.057 E2.8729
G1 X112.556 Y126.192 E2.94477
G1 X111.744 Y126.943 E2.99628
G1 X111.031 Y127.443 E3.03683
G1 X110.404 Y127.787 E3.07013
G1 X109.602 Y128.104 E3.11028
G1 X106.893 Y128.971 E3.24273
G1 X106.2 Y129.151 E3.27607
G1 X105.492 Y129.252 E3.30937
G1 X104.777 Y129.274 E3.34268
G1 X104.065 Y129.216 E3.37594
G1 X103.363 Y129.078 E3.40926
G1 X102.68 Y128.863 E3.4426
G1 X102.027 Y128.573 E3.47587
G1 X101.409 Y128.212 E3.50919
G1 X100.985 Y127.906 E3.53354
G1 X98.877 Y126.248 E3.65842
G1 X98.341 Y125.776 E3.69168
G1 X97.86 Y125.246 E3.72501
G1 X97.33 Y124.505 E3.76743
G1 X96.908 Y123.742 E3.80803
G1 X96.53 Y122.762 E3.85694
G1 X96.103 Y121.308 E3.9275
G1 X95.322 Y118.797 E4.04995
G1 X94.459 Y116.278 E4.17394
G1 X93.532 Y113.804 E4.29696
G1 X92.537 Y111.359 E4.41987
G1 X91.767 Y109.586 E4.50988
G1 X91.519 Y108.915 E4.54319
G1 X91.348 Y108.22 E4.57652
G1 X91.255 Y107.511 E4.60982
G1 X91.241 Y106.796 E4.64312
G1 X91.296 Y106.114 E4.67498
G1 X91.441 Y105.302 E4.71338
G1 X91.732 Y104.39 E4.75796
G1 X92.051 Y103.597 E4.79776
G1 X92.52 Y102.478 E4.85426
G1 X93.471 Y100.021 E4.97694
G1 X94.348 Y97.544 E5.09929
G1 X95.175 Y94.979 E5.22478
G1 X95.906 Y92.477 E5.34616
G1 X96.57 Y89.937 E5.46841
G1 X97.428 Y86.129 E5.65017
M204 S3000
M205 X10 Y10
G1 F2400 E-0.34983
G0 F3000 X97.119 Y90.051
M204 S1800
M205 X8 Y8
G1 F2400 E5.65017
G1 X97.975 Y86.252 E5.8315
G1 X98.164 Y85.595 E5.86333
G1 X98.575 Y84.659 E5.91093
G1 X99.028 Y83.916 E5.95145
G1 X99.45 Y83.379 E5.98326
G1 X99.931 Y82.894 E6.01506
G1 X100.466 Y82.469 E6.04688
G1 X101.047 Y82.11 E6.07868
G1 X101.733 Y81.787 E6.11399
G1 X102.373 Y81.549 E6.14578
G1 X103.037 Y81.388 E6.1776
G1 X103.807 Y81.294 E6.21372
G1 X105.171 Y81.295 E6.27723
G1 X105.584 Y81.285 E6.29647
G1 X106.793 Y81.304 E6.35277
G1 X107.474 Y81.354 E6.38457
G1 X108.145 Y81.484 E6.41639
G1 X108.796 Y81.692 E6.44822
G1 X109.418 Y81.974 E6.48002
G1 X110.003 Y82.326 E6.51181
G1 X110.543 Y82.745 E6.54363
G1 X111.031 Y83.224 E6.57547
G1 X111.459 Y83.756 E6.60727
G1 X111.822 Y84.335 E6.63909
G1 X112.175 Y85.059 E6.67659
G1 X112.48 Y85.917 E6.719
G1 X113.223 Y88.497 E6.84401
G1 X114.036 Y91.047 E6.96864
G1 X114.906 Y93.532 E7.09124
G1 X115.855 Y96.015 E7.21502
G1 X117.38 Y99.622 E7.39737
G1 X117.691 Y100.318 E7.43286
G1 X117.932 Y100.957 E7.46466
G1 X118.098 Y101.62 E7.49649
G1 X118.184 Y102.298 E7.52831
G1 X118.191 Y102.981 E7.56012
G1 X118.139 Y103.525 E7.58556
G1 X118.029 Y104.278 E7.621
G1 X117.909 Y104.842 E7.64785
G1 X117.248 Y107.514 E7.77602
G1 X116.675 Y110.152 E7.90172
G1 X116.189 Y112.741 E8.02438
G1 X115.768 Y115.39 E8.14928
G1 X115.537 Y117.101 E8.22967
G1 X115.128 Y120.854 E8.40546
G1 X115.014 Y121.528 E8.43729
G1 X114.822 Y122.184 E8.46912
G1 X114.555 Y122.813 E8.50094
G1 X114.217 Y123.406 E8.53272
G1 X113.742 Y124.038 E8.56953
G1 X113.178 Y124.691 E8.60971
G1 X112.145 Y125.811 E8.68066
G1 X111.395 Y126.505 E8.72824
G1 X110.71 Y126.984 E8.76716
G1 X110.108 Y127.307 E8.79897
G1 X109.431 Y127.571 E8.83281
G1 X106.722 Y128.438 E8.96525
G1 X106.06 Y128.608 E8.99708
G1 X105.383 Y128.699 E9.02889
G1 X104.7 Y128.711 E9.0607
G1 X104.02 Y128.643 E9.09252
G1 X103.353 Y128.496 E9.12432
G1 X102.708 Y128.272 E9.15611
G1 X102.093 Y127.974 E9.18794
G1 X101.332 Y127.466 E9.23054
G1 X99.224 Y125.808 E9.35542
G1 X98.712 Y125.355 E9.38725
G1 X98.257 Y124.846 E9.41904
G1 X97.798 Y124.198 E9.45602
G1 X97.399 Y123.471 E9.49464
G1 X97.068 Y122.605 E9.53781
G1 X96.667 Y121.239 E9.6041
G1 X95.848 Y118.605 E9.73254
G1 X94.993 Y116.109 E9.85539
G1 X94.043 Y113.574 E9.98145
G1 X93.047 Y111.124 E10.1046
G1 X92.281 Y109.362 E10.19406
G1 X92.046 Y108.721 E10.22585
G1 X91.887 Y108.056 E10.25769
G1 X91.807 Y107.378 E10.28948
G1 X91.807 Y106.695 E10.32128
G1 X91.871 Y106.073 E10.3504
G1 X91.993 Y105.401 E10.3822
G1 X92.251 Y104.599 E10.42143
G1 X92.568 Y103.814 E10.46085
G1 X93.026 Y102.72 E10.51608
G1 X94.001 Y100.202 E10.64181
G1 X94.877 Y97.726 E10.76411
G1 X95.704 Y95.164 E10.88946
G1 X96.451 Y92.607 E11.01351
G1 X97.119 Y90.051 E11.13652
M204 S3000
M205 X10 Y10
G1 F2400 E5.13652
G0 F3000 X96.244 Y95.316
M204 S1800
M205 X8 Y8
G1 F2400 E11.13652
G1 X96.99 Y92.762 E11.26041
G1 X97.662 Y90.19 E11.3842
G1 X98.521 Y86.375 E11.56629
G1 X98.703 Y85.751 E11.59655
G1 X99.073 Y84.915 E11.63912
G1 X99.506 Y84.21 E11.67765
G1 X99.912 Y83.702 E11.70793
G1 X100.377 Y83.248 E11.73819
G1 X100.894 Y82.855 E11.76843
G1 X101.804 Y82.357 E11.81673
G1 X102.567 Y82.076 E11.8546
G1 X103.2 Y81.928 E11.88487
G1 X104.085 Y81.854 E11.92622
G1 X105.317 Y81.855 E11.98359
G1 X105.575 Y81.845 E11.99561
G1 X106.784 Y81.864 E12.05191
G1 X107.432 Y81.914 E12.08218
G1 X108.068 Y82.043 E12.11239
G1 X108.684 Y82.25 E12.14265
G1 X109.27 Y82.53 E12.17289
G1 X109.817 Y82.881 E12.20316
G1 X110.317 Y83.295 E12.23339
G1 X110.762 Y83.769 E12.26366
G1 X111.146 Y84.293 E12.29391
G1 X111.64 Y85.226 E12.34307
G1 X111.942 Y86.072 E12.3849
G1 X112.686 Y88.656 E12.51011
G1 X113.502 Y91.215 E12.63517
G1 X114.387 Y93.74 E12.75976
G1 X115.338 Y96.23 E12.88388
G1 X116.881 Y99.879 E13.06835
G1 X117.179 Y100.547 E13.10241
G1 X117.407 Y101.155 E13.13265
G1 X117.559 Y101.787 E13.16292
G1 X117.631 Y102.432 E13.19314
G1 X117.623 Y103.189 E13.22839
G1 X117.476 Y104.186 E13.27532
G1 X117.365 Y104.708 E13.30017
G1 X116.706 Y107.371 E13.42791
G1 X116.12 Y110.066 E13.55633
G1 X115.64 Y112.625 E13.67757
G1 X115.214 Y115.306 E13.80397
G1 X114.979 Y117.049 E13.88587
G1 X114.571 Y120.793 E14.06123
G1 X114.461 Y121.434 E14.09152
G1 X114.273 Y122.055 E14.12173
G1 X114.01 Y122.65 E14.15202
G1 X113.677 Y123.207 E14.18224
G1 X113.318 Y123.672 E14.20959
G1 X112.633 Y124.461 E14.25825
G1 X111.735 Y125.431 E14.3198
G1 X111.046 Y126.068 E14.36349
G1 X110.389 Y126.524 E14.40073
G1 X109.814 Y126.826 E14.43097
G1 X109.26 Y127.038 E14.4586
G1 X106.551 Y127.905 E14.59104
G1 X105.922 Y128.064 E14.62125
G1 X105.277 Y128.145 E14.65152
G1 X104.628 Y128.147 E14.68174
G1 X103.983 Y128.068 E14.712
G1 X103.352 Y127.911 E14.74228
G1 X102.746 Y127.678 E14.77251
G1 X102.173 Y127.372 E14.80276
G1 X101.678 Y127.026 E14.83088
G1 X99.57 Y125.368 E14.95576
G1 X99.085 Y124.936 E14.986
G1 X98.657 Y124.447 E15.01626
G1 X98.267 Y123.89 E15.04792
G1 X97.891 Y123.201 E15.08447
G1 X97.605 Y122.447 E15.12202
G1 X97.193 Y121.044 E15.19011
G1 X96.381 Y118.435 E15.31735
G1 X95.516 Y115.908 E15.44172
G1 X94.579 Y113.406 E15.56612
G1 X93.562 Y110.905 E15.69184
G1 X92.794 Y109.139 E15.78151
G1 X92.573 Y108.529 E15.81172
G1 X92.428 Y107.895 E15.842
G1 X92.361 Y107.249 E15.87225
G1 X92.401 Y106.284 E15.91722
G1 X92.545 Y105.503 E15.9542
G1 X92.77 Y104.808 E15.98822
G1 X93.084 Y104.03 E16.02728
G1 X93.563 Y102.887 E16.08499
G1 X94.52 Y100.413 E16.20851
G1 X95.407 Y97.908 E16.33225
G1 X96.244 Y95.316 E16.45908
M204 S3000
M205 X10 Y10
G1 F2400 E10.45908
;MESH:iti.stl
G0 F3000 X102.748 Y94.501
G0 X105.834 Y93.07
M204 S1800
M205 X8 Y8
;TYPE:WALL-OUTER
G1 F2400 E16.45908
G1 F899.4 X105.862 Y92.915 E16.47131
G1 F921.1 X106.077 Y92.103 E16.53501
G1 F923.1 X106.246 Y91.618 E16.57387
M204 S3000
M205 X10 Y10
G0 F3000 X106.279 Y91.62
G0 X105.859 Y93.079
G0 X105.429 Y97.59
G0 X106.294 Y103.739
M204 S1800
M205 X8 Y8
;TYPE:WALL-INNER
G1 F1500 X106.19 Y103.524 E16.58499
G1 X106.097 Y103.132 E16.60375
G1 X105.86 Y102.457 E16.63706
G1 X105.263 Y101.016 E16.70969
G1 X105.03 Y100.401 E16.74032
G1 X104.878 Y99.891 E16.7651
G1 X104.819 Y99.575 E16.78007
G1 X104.472 Y100.914 E16.84447
G1 X104.259 Y101.846 E16.88899
G1 X104.231 Y102.292 E16.9098
G1 X104.269 Y102.887 E16.93756
G1 X104.167 Y103.546 E16.96861
G1 X103.898 Y104.055 E16.99542
G1 X103.675 Y104.309 E17.01116
G1 X103.344 Y104.547 E17.03014
G1 F1278.5 X102.817 Y104.863 E17.06371
G1 F1083.9 X102.208 Y104.91 E17.10307
G1 F1055.3 X101.943 Y104.846 E17.12112
G1 X101.779 Y105.153 E17.14415
G1 X101.545 Y105.477 E17.17061
G1 X101.158 Y105.827 E17.20514
G1 F1060.6 X100.773 Y106.002 E17.23299
G1 X101.195 Y105.919 E17.26132
G1 F1055.3 X102.221 Y105.694 E17.33084
G1 F1083.9 X102.912 Y105.609 E17.3757
G1 F1198.3 X103.081 Y105.658 E17.38596
G1 F1341.9 X103.727 Y105.737 E17.41984
G1 F1443.3 X103.952 Y105.806 E17.43123
G1 F1500 X104.638 Y106.185 E17.46772
G1 X104.918 Y106.496 E17.48721
G1 X105.15 Y106.889 E17.50846
G1 F1278.5 X105.433 Y107.527 E17.54659
G1 F1102.4 X105.456 Y108.385 E17.60097
G1 F1208.6 X105.358 Y108.611 E17.6152
G1 F1423.7 X105.225 Y109.29 E17.64915
G1 F1500 X105.062 Y109.995 E17.68284
G1 X104.752 Y111.005 E17.73204
G1 X104.511 Y111.558 E17.76013
G1 X104.955 Y111.73 E17.7823
G1 X105.28 Y111.97 E17.80111
G1 X105.68 Y111.599 E17.82651
G1 X106.006 Y111.429 E17.84363
G1 X106.361 Y111.353 E17.86054
G1 X106.404 Y111.178 E17.86893
G1 X106.636 Y110.634 E17.89647
G1 F1481.5 X106.747 Y110.053 E17.92435
G1 F1443.3 X106.638 Y109.376 E17.95754
G1 F1388.4 X106.341 Y108.539 E18.00222
G1 F1208.6 X106.221 Y108.343 E18.0155
G1 F1112.6 X106.138 Y107.391 E18.07549
G1 F1208.6 X106.345 Y106.561 E18.12492
G1 F1388.4 X106.626 Y106.033 E18.15501
G1 F1500 X106.921 Y105.706 E18.17552
G1 X107.174 Y105.337 E18.19635
G1 X107.534 Y105.069 E18.21725
G1 X107.894 Y104.901 E18.23575
G1 F1463.4 X108.375 Y104.556 E18.264
G1 F1402.3 X108.518 Y104.484 E18.27198
G1 X108.358 Y104.493 E18.27996
G1 F1463.4 X107.4 Y104.423 E18.3258
G1 F1500 X106.963 Y104.32 E18.34671
G1 X106.534 Y104.041 E18.37054
G1 X106.294 Y103.739 E18.3885
M204 S3000
M205 X10 Y10
G0 F3000 X106.873 Y103.586
M204 S1800
M205 X8 Y8
G1 F1500 X106.714 Y103.325 E18.40273
G1 X106.641 Y102.992 E18.41861
G1 X106.436 Y102.406 E18.44751
G1 X106.241 Y101.912 E18.47224
G1 X105.785 Y100.815 E18.52756
G1 X105.567 Y100.241 E18.55615
G1 X105.394 Y99.66 E18.58438
G1 X105.34 Y99.218 E18.60512
G1 X105.131 Y98.608 E18.63514
G1 X105.086 Y98.335 E18.64802
G1 F1624.8 X105.072 Y97.611 E18.67915
G1 F1753.7 X105.095 Y97.006 E18.70327
G1 F1618.5 X105.147 Y96.644 E18.71905
G1 F1516.2 X105.281 Y96.329 E18.73482
G1 X104.949 Y96.327 E18.75011
G1 X104.663 Y96.205 E18.76444
G1 F1481.5 X104.393 Y95.938 E18.78234
G1 X104.558 Y96.434 E18.80698
G1 F1564.2 X104.618 Y96.801 E18.82359
G1 F1710.8 X104.616 Y97.45 E18.85008
G1 F1794.9 X104.602 Y97.591 E18.8556
G1 F1624.8 X104.583 Y98.101 E18.87754
G1 F1500 X104.426 Y98.86 E18.91363
G1 X103.929 Y100.776 E19.0058
G1 X103.778 Y101.431 E19.0371
G1 X103.66 Y102.144 E19.07075
G1 X103.709 Y102.879 E19.10505
G1 X103.639 Y103.359 E19.12764
G1 X103.436 Y103.739 E19.1477
G1 X103.302 Y103.891 E19.15713
G1 X102.965 Y104.124 E19.17621
G1 X102.578 Y104.238 E19.195
G1 X102.314 Y104.239 E19.20729
G1 X101.99 Y104.159 E19.22283
G1 X101.634 Y103.99 E19.24118
G1 X101.19 Y104.816 E19.28485
G1 X101.009 Y105.061 E19.29903
G1 X100.795 Y105.255 E19.31248
G1 X100.537 Y105.371 E19.32565
G1 X100.17 Y105.422 E19.34291
G1 X99.761 Y105.306 E19.3627
G1 X99.629 Y105.48 E19.37287
G1 X99.388 Y106.093 E19.40354
G1 X99.067 Y106.537 E19.42905
G1 X98.79 Y106.776 E19.44609
G1 X99.29 Y106.819 E19.46946
G1 X99.919 Y106.798 E19.49876
G1 X100.64 Y106.711 E19.53258
G1 X101.34 Y106.582 E19.56572
G1 X102.349 Y106.36 E19.61383
G1 X102.966 Y106.264 E19.64291
G1 X103.558 Y106.281 E19.67048
G1 X103.754 Y106.329 E19.67988
G1 X104.282 Y106.617 E19.70788
G1 X104.45 Y106.804 E19.71959
G1 X104.682 Y107.221 E19.74181
G1 X104.789 Y107.713 E19.76526
G1 X104.792 Y108.364 E19.79557
G1 X104.68 Y109.163 E19.83314
G1 X104.516 Y109.868 E19.86684
G1 X104.238 Y110.769 E19.91075
G1 X103.868 Y111.623 E19.95409
G1 F1505.4 X103.633 Y112.041 E19.97633
G1 F1552.7 X103.411 Y112.315 E19.9922
G1 F1570.1 X103.579 Y112.174 E20.00195
G1 F1521.7 X103.808 Y112.074 E20.01342
G1 F1500 X104.099 Y112.038 E20.02708
G1 X104.355 Y112.092 E20.03926
G1 X104.779 Y112.274 E20.06075
G1 X104.989 Y112.45 E20.0735
G1 X105.388 Y113.171 E20.11187
G1 X105.39 Y112.997 E20.11998
G1 X105.522 Y112.516 E20.1432
G1 X106 Y112.058 E20.17403
G1 X106.196 Y111.956 E20.18432
G1 X106.423 Y111.908 E20.19512
G1 X106.7 Y111.935 E20.20808
G1 X106.905 Y112.023 E20.21847
G1 X106.867 Y111.803 E20.22886
G1 X106.936 Y111.353 E20.25006
G1 X107.174 Y110.801 E20.27805
G1 X107.29 Y110.192 E20.30692
G1 X107.289 Y109.898 E20.32061
G1 X107.205 Y109.376 E20.34523
G1 X106.885 Y108.292 E20.39786
G1 X106.785 Y107.432 E20.43817
G1 X106.867 Y106.793 E20.46817
G1 X107.098 Y106.335 E20.49206
G1 X107.376 Y106.065 E20.5101
G1 X107.576 Y105.726 E20.52843
G1 X107.793 Y105.565 E20.54101
G1 X108.181 Y105.386 E20.56091
G1 X108.533 Y105.127 E20.58126
G1 X108.736 Y105.027 E20.5918
G1 X109.087 Y104.987 E20.60825
G1 X109.639 Y104.77 E20.63586
G1 X110.167 Y104.471 E20.66412
G1 F1433.4 X110.688 Y104.055 E20.6966
G1 F1274.7 X110.84 Y103.846 E20.71077
G1 F1196.6 X111.046 Y103.657 E20.72708
G1 F1201.7 X111.37 Y103.166 E20.76128
G1 X111.017 Y102.995 E20.78407
G1 X110.874 Y102.855 E20.7957
G1 F1196.6 X110.403 Y103.295 E20.83333
G1 F1327 X109.837 Y103.397 E20.8636
G1 F1500 X109.557 Y103.356 E20.87678
G1 X109.309 Y103.574 E20.89215
G1 X109.053 Y103.674 E20.90495
G1 X108.845 Y103.806 E20.91642
G1 X108.34 Y103.928 E20.94061
G1 X107.44 Y103.865 E20.98262
G1 X107.177 Y103.802 E20.99521
G1 X106.873 Y103.586 E21.01258
M204 S3000
M205 X10 Y10
G0 F3000 X106.684 Y103.616
G0 X105.05 Y116.098
M204 S1800
M205 X8 Y8
G1 F1178.1 X105.224 Y116.198 E21.02448
G1 X105.458 Y116.202 E21.03835
G1 X105.621 Y116.111 E21.04942
G1 X105.706 Y115.962 E21.05959
G1 F1219.2 X105.724 Y115.424 E21.09043
G1 F1263.2 X105.801 Y115.09 E21.10938
G1 X105.678 Y114.874 E21.12313
G1 X105.463 Y114.362 E21.15383
G1 X105.276 Y114.984 E21.18975
G1 X105.052 Y115.291 E21.21076
G1 F1222.7 X105.04 Y115.679 E21.23294
G1 F1181.4 X104.991 Y115.834 E21.24255
G1 F1178.1 X105.05 Y116.098 E21.25858
M204 S3000
M205 X10 Y10
G0 F3000 X105.198 Y113.656
G0 X104.623 Y112.627
G0 X103.762 Y112.509
G0 X102.829 Y113.664
G0 X102.36 Y116.807
G0 X102.474 Y118.36
G0 X102.536 Y118.812
M204 S1800
M205 X8 Y8
;TYPE:WALL-OUTER
