;FLAVOR:Marlin
;TIME:725
;Filament used: 0.572454m
;Layer height: 0.2
;MINX:88.288
;MINY:73.61
;MINZ:0.2
;MAXX:121.694
;MAXY:136.388
;MAXZ:5
;Generated with Cura_SteamEngine main
M140 S60
M105
M190 S60
M104 S200
M105
M109 S200
M82 ;absolute extrusion mode
G21 ;metric values
G90 ;absolute positioning
M82 ;set extruder to absolute mode
M107 ;start with the fan off
G28 X0 Y0 ;move X/Y to min endstops
G28 Z0 ;move Z to min endstops
G1 Z15.0 F100 ;move the platform down 15mm
G92 E0 ;zero the extruded length
G1 F200 E3 ;extrude 3mm of feed stock
G92 E0 ;zero the extruded length again
G1 F100
G0 Y20 F100
M117 Printing...
G5
G92 E0
G92 E0
G1 F2400 E-6
;LAYER_COUNT:25
;LAYER:0
M107
M204 S3000
M205 X10 Y10
G1 F600 Z0.275
G0 F3000 X98.388 Y76.151 Z0.275
G1 F600 Z0.2
G0 F3000 X96.566 Y81.012
M204 S1800
M205 X8 Y8
;TYPE:SKIRT
G1 F2400 E0
G1 X96.841 Y79.455 E0.07362
G1 X97.004 Y78.759 E0.10691
G1 X97.233 Y78.094 E0.13966
G1 X97.576 Y77.352 E0.17772
G1 X97.946 Y76.74 E0.21102
G1 X98.388 Y76.151 E0.24531
G1 X98.965 Y75.524 E0.28499
G1 X99.505 Y75.055 E0.31829
G1 X100.094 Y74.649 E0.3516
G1 X100.771 Y74.282 E0.38746
G1 X101.521 Y73.978 E0.42514
G1 X102.209 Y73.783 E0.45844
G1 X102.915 Y73.667 E0.49176
G1 X103.607 Y73.63 E0.52403
G1 X104.58 Y73.631 E0.56933
G1 X106.252 Y73.611 E0.64719
G1 X107.267 Y73.61 E0.69446
G1 X107.981 Y73.649 E0.72775
G1 X108.686 Y73.768 E0.76105
G1 X109.374 Y73.965 E0.79437
G1 X110.035 Y74.237 E0.82765
G1 X110.662 Y74.581 E0.86095
G1 X111.247 Y74.993 E0.89427
G1 X111.936 Y75.615 E0.93749
G1 X112.493 Y76.252 E0.97689
G1 X112.9 Y76.839 E1.01016
G1 X113.412 Y77.82 E1.06168
G1 X113.79 Y78.902 E1.11505
G1 X113.965 Y79.555 E1.14653
G1 X114.511 Y81.705 E1.24982
G1 X115.245 Y84.286 E1.37477
G1 X116.036 Y86.79 E1.49704
G1 X116.914 Y89.325 E1.62196
G1 X117.831 Y91.75 E1.74269
G1 X118.842 Y94.205 E1.86631
G1 X119.922 Y96.63 E1.98993
G1 X120.193 Y97.194 E2.01906
G1 X120.248 Y97.326 E2.02572
G1 X121.082 Y99.079 E2.11611
G1 X121.381 Y99.849 E2.15458
G1 X121.564 Y100.54 E2.18786
G1 X121.669 Y101.248 E2.22119
G1 X121.694 Y101.962 E2.25446
G1 X121.649 Y102.595 E2.28401
G1 X121.582 Y103.151 E2.31008
G1 X121.433 Y103.996 E2.35004
G1 X121.132 Y105.129 E2.40462
G1 X120.699 Y106.654 E2.47844
G1 X120.048 Y109.22 E2.60171
G1 X119.474 Y111.787 E2.72419
G1 X118.971 Y114.374 E2.84691
G1 X118.533 Y117.027 E2.97212
G1 X118.178 Y119.628 E3.09435
G1 X117.915 Y122.045 E3.20756
G1 X117.81 Y123.126 E3.25814
G1 X117.726 Y123.833 E3.29129
G1 X117.53 Y125.789 E3.38283
G1 X117.396 Y127.008 E3.43993
G1 X117.278 Y127.714 E3.47326
G1 X117.082 Y128.402 E3.50657
G1 X116.811 Y129.064 E3.53988
G1 X116.467 Y129.691 E3.57318
G1 X115.847 Y130.528 E3.62168
G1 X115.098 Y131.381 E3.67454
G1 X114.343 Y132.217 E3.72699
G1 X113.734 Y132.869 E3.76854
G1 X112.939 Y133.61 E3.81914
G1 X112.154 Y134.177 E3.86423
G1 X111.531 Y134.528 E3.89753
G1 X110.649 Y134.884 E3.94182
G1 X109.665 Y135.197 E3.9899
G1 X109.001 Y135.398 E4.0222
G1 X106.975 Y136.067 E4.12155
G1 X106.285 Y136.253 E4.15483
G1 X105.578 Y136.36 E4.18812
G1 X104.863 Y136.388 E4.22144
G1 X104.15 Y136.336 E4.25473
G1 X103.446 Y136.205 E4.28808
G1 X102.762 Y135.996 E4.32138
G1 X102.106 Y135.712 E4.35467
G1 X101.41 Y135.317 E4.39193
G1 X100.773 Y134.882 E4.42785
G1 X99.925 Y134.224 E4.47783
G1 X99.268 Y133.7 E4.51696
G1 X98.099 Y132.803 E4.58557
G1 X97.563 Y132.329 E4.61889
G1 X97.01 Y131.733 E4.65675
G1 X96.461 Y131.006 E4.69917
G1 X96.096 Y130.391 E4.73247
G1 X95.803 Y129.739 E4.76575
G1 X95.598 Y129.111 E4.79651
G1 X94.716 Y125.846 E4.95399
G1 X93.943 Y123.263 E5.07954
G1 X93.12 Y120.775 E5.20156
G1 X92.217 Y118.28 E5.32512
G1 X91.246 Y115.821 E5.44822
G1 X90.203 Y113.383 E5.5717
G1 X89.574 Y112.039 E5.6408
G1 X89.461 Y111.758 E5.6549
G1 X88.869 Y110.467 E5.72103
G1 X88.608 Y109.801 E5.75434
G1 X88.423 Y109.11 E5.78765
G1 X88.316 Y108.403 E5.82094
G1 X88.288 Y107.688 E5.85426
G1 X88.34 Y106.975 E5.88755
G1 X88.479 Y106.208 E5.92385
G1 X88.66 Y105.516 E5.95715
G1 X88.937 Y104.805 E5.99269
G1 X89.408 Y103.78 E6.04521
G1 X90.503 Y101.313 E6.17089
G1 X91.531 Y98.804 E6.29715
G1 X92.442 Y96.393 E6.41716
G1 X93.31 Y93.883 E6.54083
G1 X94.108 Y91.341 E6.66489
G1 X94.831 Y88.789 E6.7884
G1 X95.472 Y86.258 E6.90997
G1 X96.063 Y83.606 E7.03649
G1 X96.566 Y81.012 E7.15953
M204 S3000
M205 X10 Y10
G1 F2400 E1.15953
G0 F3000 X96.019 Y86.381
M204 S1800
M205 X8 Y8
G1 F2400 E7.15953
G1 X96.611 Y83.725 E7.28624
G1 X97.109 Y81.154 E7.40818
G1 X97.392 Y79.553 E7.48389
G1 X97.55 Y78.888 E7.51571
G1 X97.797 Y78.207 E7.54944
G1 X98.085 Y77.587 E7.58128
G1 X98.443 Y77.006 E7.61305
G1 X98.914 Y76.406 E7.64857
G1 X99.377 Y75.904 E7.68037
G1 X99.897 Y75.46 E7.71221
G1 X100.464 Y75.08 E7.74399
G1 X101.02 Y74.785 E7.7733
G1 X101.732 Y74.497 E7.80906
G1 X102.391 Y74.317 E7.84087
G1 X103.066 Y74.215 E7.87266
G1 X103.607 Y74.19 E7.89788
G1 X104.587 Y74.191 E7.94351
G1 X106.252 Y74.171 E8.02105
G1 X107.267 Y74.17 E8.06831
G1 X107.949 Y74.209 E8.10012
G1 X108.622 Y74.328 E8.13194
G1 X109.277 Y74.524 E8.16378
G1 X109.904 Y74.796 E8.1956
G1 X110.494 Y75.139 E8.22738
G1 X111.041 Y75.548 E8.25919
G1 X111.549 Y76.02 E8.29147
G1 X112.07 Y76.62 E8.32848
G1 X112.455 Y77.185 E8.36031
G1 X112.902 Y78.052 E8.40573
G1 X113.249 Y79.048 E8.45484
G1 X113.422 Y79.692 E8.4859
G1 X113.975 Y81.869 E8.59048
G1 X114.704 Y84.431 E8.71452
G1 X115.514 Y86.998 E8.83986
G1 X116.377 Y89.487 E8.96252
G1 X117.309 Y91.954 E9.08532
G1 X118.332 Y94.438 E9.21041
G1 X119.412 Y96.864 E9.33407
G1 X119.688 Y97.437 E9.36368
G1 X119.741 Y97.566 E9.37018
G1 X120.574 Y99.315 E9.46038
G1 X120.858 Y100.051 E9.49712
G1 X121.027 Y100.713 E9.52893
G1 X121.118 Y101.39 E9.56074
G1 X121.132 Y102.202 E9.59855
G1 X121.026 Y103.084 E9.63992
G1 X120.915 Y103.712 E9.66961
G1 X120.764 Y104.343 E9.69982
G1 X120.593 Y104.976 E9.73036
G1 X120.16 Y106.499 E9.80408
G1 X119.509 Y109.071 E9.92762
G1 X118.927 Y111.668 E10.05155
G1 X118.412 Y114.319 E10.1773
G1 X117.981 Y116.928 E10.30043
G1 X117.626 Y119.529 E10.42267
G1 X117.359 Y121.984 E10.53766
G1 X117.254 Y123.06 E10.588
G1 X117.17 Y123.767 E10.62115
G1 X116.973 Y125.728 E10.71292
G1 X116.839 Y126.947 E10.77003
G1 X116.725 Y127.621 E10.80186
G1 X116.533 Y128.276 E10.83364
G1 X116.265 Y128.905 E10.86548
G1 X115.926 Y129.498 E10.89728
G1 X115.426 Y130.159 E10.93588
G1 X114.737 Y130.945 E10.98455
G1 X113.934 Y131.834 E11.04033
G1 X113.325 Y132.486 E11.08187
G1 X112.583 Y133.178 E11.12912
G1 X111.826 Y133.722 E11.17252
G1 X111.228 Y134.053 E11.20435
G1 X110.479 Y134.35 E11.24187
G1 X109.503 Y134.661 E11.28957
G1 X108.828 Y134.866 E11.32241
G1 X106.8 Y135.535 E11.42185
G1 X106.14 Y135.711 E11.45366
G1 X105.463 Y135.808 E11.4855
G1 X104.78 Y135.826 E11.51732
G1 X104.1 Y135.764 E11.54911
G1 X103.432 Y135.623 E11.5809
G1 X102.784 Y135.405 E11.61274
G1 X101.846 Y134.939 E11.66151
G1 X101.116 Y134.44 E11.70268
G1 X100.338 Y133.837 E11.74852
G1 X99.6 Y133.249 E11.79246
G1 X98.513 Y132.423 E11.85603
G1 X97.934 Y131.909 E11.89208
G1 X97.319 Y131.215 E11.93526
G1 X96.909 Y130.669 E11.96705
G1 X96.565 Y130.078 E11.99889
G1 X96.293 Y129.452 E12.03068
G1 X96.138 Y128.965 E12.05447
G1 X95.245 Y125.659 E12.21393
G1 X94.477 Y123.094 E12.33861
G1 X93.647 Y120.585 E12.46166
G1 X92.745 Y118.091 E12.58516
G1 X91.762 Y115.602 E12.70977
G1 X90.723 Y113.174 E12.83274
G1 X90.081 Y111.802 E12.90327
G1 X89.965 Y111.511 E12.91786
G1 X89.379 Y110.233 E12.98333
G1 X89.131 Y109.597 E13.01511
G1 X88.959 Y108.935 E13.04696
G1 X88.865 Y108.259 E13.07874
G1 X88.851 Y107.575 E13.1106
G1 X88.98 Y106.502 E13.16092
G1 X89.203 Y105.658 E13.20157
G1 X89.446 Y105.039 E13.23254
G1 X89.914 Y104.021 E13.28471
G1 X91.032 Y101.502 E13.41304
G1 X92.042 Y99.037 E13.53708
G1 X92.964 Y96.597 E13.65854
G1 X93.853 Y94.025 E13.78525
G1 X94.638 Y91.526 E13.90722
G1 X95.375 Y88.926 E14.03306
G1 X96.019 Y86.381 E14.1553
M204 S3000
M205 X10 Y10
G1 F2400 E8.1553
G0 F3000 X95.18 Y91.67
M204 S1800
M205 X8 Y8
G1 F2400 E14.1553
G1 X95.913 Y89.081 E14.28059
G1 X96.567 Y86.497 E14.40471
G1 X97.15 Y83.885 E14.52933
G1 X97.674 Y81.178 E14.65772
G1 X97.944 Y79.65 E14.72997
G1 X98.096 Y79.019 E14.76019
G1 X98.318 Y78.413 E14.79024
G1 X98.593 Y77.824 E14.82051
G1 X98.939 Y77.274 E14.85077
G1 X99.346 Y76.761 E14.88126
G1 X99.789 Y76.286 E14.9115
G1 X100.286 Y75.868 E14.94174
G1 X100.831 Y75.514 E14.97201
G1 X101.338 Y75.259 E14.99843
G1 X101.941 Y75.018 E15.02867
G1 X102.569 Y74.852 E15.05892
G1 X103.318 Y74.75 E15.09411
G1 X104.593 Y74.751 E15.15348
G1 X106.253 Y74.731 E15.23079
G1 X107.268 Y74.73 E15.27805
G1 X107.916 Y74.769 E15.30828
G1 X108.555 Y74.888 E15.33854
G1 X109.174 Y75.084 E15.36878
G1 X109.765 Y75.355 E15.39905
G1 X110.317 Y75.696 E15.42926
G1 X111.124 Y76.384 E15.47864
G1 X111.646 Y76.987 E15.51578
G1 X112.007 Y77.527 E15.54603
G1 X112.39 Y78.284 E15.58553
G1 X112.709 Y79.193 E15.63039
G1 X112.88 Y79.83 E15.6611
G1 X113.444 Y82.049 E15.76771
G1 X114.163 Y84.576 E15.89005
G1 X114.982 Y87.172 E16.0168
G1 X115.844 Y89.659 E16.13937
G1 X116.8 Y92.187 E16.26522
G1 X117.805 Y94.629 E16.38818
G1 X118.922 Y97.138 E16.51606
G1 X119.183 Y97.68 E16.54408
G1 X119.232 Y97.799 E16.55007
G1 X120.072 Y99.566 E16.64117
G1 X120.334 Y100.252 E16.67536
G1 X120.49 Y100.883 E16.70563
G1 X120.566 Y101.528 E16.73587
G1 X120.537 Y102.461 E16.77934
G1 X120.47 Y103.017 E16.80541
G1 X120.37 Y103.584 E16.83222
G1 X120.224 Y104.197 E16.86157
G1 X120.054 Y104.823 E16.89177
G1 X119.62 Y106.353 E16.96583
G1 X118.962 Y108.947 E17.09044
G1 X118.379 Y111.549 E17.2146
G1 X117.859 Y114.224 E17.34149
G1 X117.434 Y116.801 E17.46311
G1 X117.066 Y119.499 E17.5899
G1 X116.809 Y121.858 E17.7004
G1 X116.711 Y122.875 E17.74797
G1 X116.614 Y123.694 E17.78638
G1 X116.416 Y125.667 E17.87871
G1 X116.282 Y126.886 E17.93581
G1 X116.172 Y127.526 E17.96605
G1 X115.983 Y128.148 E17.99632
G1 X115.72 Y128.742 E18.02657
G1 X115.386 Y129.299 E18.05681
G1 X115.004 Y129.789 E18.08574
G1 X114.266 Y130.631 E18.13788
G1 X113.525 Y131.452 E18.18938
G1 X112.916 Y132.104 E18.23092
G1 X112.224 Y132.748 E18.27494
G1 X111.499 Y133.266 E18.31643
G1 X110.928 Y133.575 E18.34666
G1 X110.309 Y133.817 E18.37761
G1 X109.34 Y134.126 E18.42497
G1 X108.617 Y134.345 E18.46014
G1 X106.624 Y135.003 E18.55787
G1 X105.996 Y135.168 E18.58811
G1 X105.352 Y135.255 E18.61837
G1 X104.703 Y135.262 E18.64859
G1 X104.057 Y135.19 E18.67885
G1 X103.426 Y135.038 E18.70908
G1 X102.817 Y134.81 E18.73936
G1 X102.117 Y134.446 E18.77609
G1 X101.459 Y133.997 E18.81319
G1 X100.623 Y133.348 E18.86247
G1 X99.939 Y132.802 E18.90322
G1 X98.86 Y131.983 E18.9663
G1 X98.307 Y131.49 E19.0008
G1 X97.747 Y130.853 E19.04029
G1 X97.358 Y130.333 E19.07053
G1 X97.037 Y129.768 E19.10079
G1 X96.75 Y129.08 E19.1355
G1 X95.793 Y125.54 E19.30625
G1 X95.014 Y122.934 E19.4329
G1 X94.178 Y120.407 E19.55684
G1 X93.256 Y117.861 E19.68293
G1 X92.283 Y115.397 E19.80629
G1 X91.234 Y112.944 E19.93051
G1 X90.588 Y111.564 E20.00147
G1 X90.48 Y111.291 E20.01514
G1 X89.888 Y110 E20.08127
G1 X89.654 Y109.394 E20.11152
G1 X89.496 Y108.764 E20.14176
G1 X89.417 Y108.119 E20.17202
G1 X89.417 Y107.469 E20.20229
G1 X89.532 Y106.596 E20.24329
G1 X89.745 Y105.803 E20.28152
G1 X89.954 Y105.273 E20.30805
G1 X90.449 Y104.196 E20.36324
G1 X91.536 Y101.747 E20.48801
G1 X92.556 Y99.258 E20.61326
G1 X93.508 Y96.738 E20.7387
G1 X94.375 Y94.23 E20.86226
G1 X95.18 Y91.67 E20.98722
M204 S3000
M205 X10 Y10
G1 F2400 E14.98722
;MESH:iti.stl
G0 F3000 X97.519 Y103.578
G0 X97.537 Y104.662
G0 X98.631 Y105.796
M204 S1800
M205 X8 Y8
;TYPE:WALL-INNER
G1 F2400 E20.98722
G1 F1500 X98.345 Y105.815 E21.00057
G1 X97.718 Y105.672 E21.03051
G1 X97.365 Y106.605 E21.07696
G1 X97.114 Y107.02 E21.09955
G1 X96.861 Y107.31 E21.11747
G1 X97.198 Y107.329 E21.13318
G1 X98.108 Y107.276 E21.17563
G1 X99.091 Y107.141 E21.22183
G1 X99.819 Y106.994 E21.25641
G1 X101.568 Y106.613 E21.33976
G1 X102.539 Y106.523 E21.38517
G1 X103.156 Y106.593 E21.41409
G1 X103.527 Y106.713 E21.43224
G1 X103.839 Y106.868 E21.44846
G1 X104.311 Y107.255 E21.47689
G1 X104.583 Y107.63 E21.49846
G1 X104.826 Y108.21 E21.52774
G1 X104.966 Y108.936 E21.56217
G1 X104.921 Y110 E21.61176
G1 X104.749 Y111.024 E21.66011
G1 X104.536 Y111.885 E21.70141
G1 X104.377 Y112.424 E21.72757
G1 X104.044 Y113.385 E21.77493
G1 X103.674 Y114.247 E21.81861
G1 X103.444 Y114.675 E21.84124
G1 X103.751 Y114.624 E21.85573
G1 X104.509 Y114.812 E21.89209
G1 X104.718 Y114.933 E21.90334
G1 X105.183 Y115.346 E21.9323
G1 X105.417 Y115.724 E21.953
G1 X105.442 Y115.608 E21.95852
G1 X105.678 Y115.242 E21.9788
G1 X106.177 Y114.762 E22.01104
G1 X106.539 Y114.543 E22.03074
G1 X106.744 Y114.476 E22.04079
G1 X107.153 Y114.437 E22.05992
G1 X107.388 Y114.474 E22.07099
G1 X107.512 Y113.748 E22.10529
G1 X107.791 Y113.157 E22.13572
G1 X107.976 Y112.391 E22.17242
G1 X107.975 Y111.745 E22.2025
G1 X107.868 Y111.182 E22.22918
G1 X107.729 Y110.693 E22.25285
G1 X107.562 Y110.159 E22.27891
G1 X107.376 Y109.441 E22.31344
G1 X107.279 Y108.718 E22.34741
G1 X107.296 Y107.925 E22.38434
G1 X107.441 Y107.283 E22.41499
G1 X107.578 Y106.98 E22.43047
G1 X107.946 Y106.495 E22.45882
G1 X108.154 Y106.33 E22.47119
G1 X108.421 Y105.883 E22.49543
G1 X108.684 Y105.653 E22.5117
G1 X109.207 Y105.418 E22.5384
G1 X109.881 Y104.942 E22.57682
G1 X110.21 Y104.805 E22.59341
G1 X110.662 Y104.754 E22.6146
G1 X111.103 Y104.61 E22.6362
G1 X111.75 Y104.283 E22.66995
G1 F1471.1 X112.191 Y104 E22.69483
G1 F1414.1 X112.633 Y103.717 E22.72075
G1 F1335.5 X113.228 Y103.13 E22.76447
G1 F1308.4 X113.602 Y102.69 E22.7953
G1 F1331.2 X113.685 Y102.521 E22.80517
G1 X113.391 Y102.392 E22.82202
G1 X113.217 Y102.224 E22.83471
G1 F1314.6 X112.666 Y102.771 E22.87596
G1 F1393 X112.066 Y102.946 E22.9073
G1 F1500 X111.773 Y102.985 E22.92106
G1 X111.453 Y102.958 E22.93602
G1 X111.025 Y103.269 E22.96065
G1 X110.586 Y103.476 E22.98325
G1 X110.105 Y103.658 E23.0072
G1 X109.389 Y103.707 E23.04062
G1 X108.64 Y103.669 E23.07554
G1 X108.258 Y103.611 E23.09353
G1 X107.925 Y103.506 E23.10979
G1 X107.702 Y103.377 E23.12179
G1 X107.432 Y103.127 E23.13892
G1 X107.218 Y102.772 E23.15822
G1 X107.071 Y102.241 E23.18388
G1 X106.894 Y101.756 E23.20792
G1 X106.732 Y101.274 E23.23159
G1 X105.888 Y99.228 E23.33465
G1 X105.609 Y98.505 E23.37074
G1 X105.381 Y97.804 E23.40506
G1 X105.276 Y97.009 E23.4424
G1 X104.973 Y96.147 E23.48495
G1 F1188.1 X104.747 Y95.659 E23.51656
G1 F1013.3 X104.709 Y95.72 E23.52152
G1 F1231.7 X104.481 Y96.176 E23.55043
G1 F1500 X104.401 Y96.525 E23.5671
G1 X103.719 Y99.158 E23.69375
G1 X103.547 Y99.874 E23.72804
G1 X103.408 Y100.62 E23.76337
G1 X103.37 Y101.406 E23.80002
G1 X103.42 Y101.954 E23.82564
G1 X103.357 Y102.613 E23.85647
G1 X103.294 Y102.819 E23.8665
G1 X103.04 Y103.301 E23.89187
G1 X102.824 Y103.573 E23.90804
G1 X102.241 Y103.984 E23.94125
G1 X101.978 Y104.091 E23.95447
G1 X101.558 Y104.169 E23.97437
G1 X101.217 Y104.158 E23.99025
G1 X100.736 Y104.043 E24.01328
G1 X100.378 Y103.894 E24.03134
G1 X99.91 Y104.795 E24.07861
G1 X99.602 Y105.218 E24.10298
G1 X99.234 Y105.552 E24.12612
G1 X98.924 Y105.711 E24.14234
G1 X98.631 Y105.796 E24.15655
M204 S3000
M205 X10 Y10
G0 F3000 X103.461 Y107.285
G0 X104.131 Y107.953
G0 X105.479 Y117.279
G0 X105.177 Y120.346
M204 S1800
M205 X8 Y8
G1 F1250 X105.245 Y120.434 E24.16276
G1 X105.456 Y120.508 E24.17526
G1 X105.653 Y120.475 E24.18642
G1 X105.78 Y120.379 E24.19531
G1 X105.858 Y120.152 E24.20873
G1 F1331.2 X105.839 Y119.54 E24.24085
G1 F1423.7 X105.912 Y119.146 E24.26051
G1 X105.77 Y118.888 E24.27496
G1 X105.666 Y118.572 E24.29128
G1 X105.484 Y119.085 E24.31798
G1 X105.239 Y119.428 E24.33866
G1 F1416.5 X105.247 Y119.686 E24.35139
G1 F1324.9 X105.162 Y120.179 E24.37776
G1 F1250 X105.177 Y120.346 E24.38713
M204 S3000
M205 X10 Y10
G0 F3000 X106.288 Y115.991
G0 X107.189 Y115.139
G0 X108.878 Y117.439
G0 X109.99 Y119.73
G0 X110.488 Y123.995
G0 X110.424 Y125.658
G0 X110.026 Y126.382
G0 X109 Y126.687
M204 S1800
M205 X8 Y8
;TYPE:WALL-OUTER
G1 F2193.2 X108.723 Y126.972 E24.39979
G1 F2258.1 X108.626 Y127.023 E24.40318
M204 S3000
M205 X10 Y10
G0 F3000 X109.542 Y127.322
G0 X109.037 Y128.039
M204 S1800
M205 X8 Y8
G1 F1814.3 X109.007 Y128.278 E24.41245
